src/assets/img/delete-12-basic-600.svg

<?xml version="1.0" encoding="UTF-8"?>
<svg width="12px" height="12px" viewBox="0 0 12 12" version="1.1" xmlns="http://www.w3.org/2000/svg" xmlns:xlink="http://www.w3.org/1999/xlink">
    <!-- Generator: sketchtool 53.2 (72643) - https://sketchapp.com -->
    <title>99105D34-8A75-4546-B027-302F4693BE83</title>
    <desc>Created with sketchtool.</desc>
    <g id="UI-Kit" stroke="none" stroke-width="1" fill="none" fill-rule="evenodd">
        <g transform="translate(-68.000000, -1088.000000)" fill-rule="nonzero" id="Icons-set">
            <g transform="translate(45.000000, 947.000000)">
                <g id="12" transform="translate(1.000000, 92.000000)">
                    <g id="Icons/Delete-12-Basic600" transform="translate(22.000000, 49.000000)">
                        <rect id="ico-zone" fill-opacity="0" fill="#FFFFFF" x="0" y="0" width="12" height="12"></rect>
                        <path d="M10.8648774,1.86487745 C11.1405337,1.86487745 11.3512876,2.0757245 11.3512876,2.35138071 C11.3512876,2.62703693 11.1405026,2.83785294 10.8648154,2.83785294 L10.1999628,2.83785294 L9.45400557,11.2702761 C9.40536766,11.6756748 9.04860687,12 8.64320818,12 L2.74051504,12 C2.31891405,12 1.97835556,11.6756748 1.92971765,11.2702761 L1.18376046,2.83779086 L0.486472225,2.83779086 C0.210816012,2.83779086 -2.55795385e-13,2.62697485 -2.55795385e-13,2.35131863 C-2.55795385e-13,2.07566242 0.210784973,1.86484641 0.486472225,1.86484641 L3.08110457,1.86484641 L3.08110457,0.810797389 C3.08110457,0.356760783 3.43783431,0 3.89190196,0 L7.45947875,0 C7.91351536,0 8.27027614,0.356760783 8.27027614,0.810797389 L8.27027614,1.86487745 L10.8648774,1.86487745 Z M4.05404902,0.97297549 L4.05404902,1.86487745 L7.29730065,1.86487745 L7.29730065,0.97297549 L4.05404902,0.97297549 Z" id="Combined-Shape" fill="#7F8FA4"></path>
                    </g>
                </g>
            </g>
        </g>
    </g>
</svg>

<svg xmlns="http://www.w3.org/2000/svg" width="12" height="12" viewBox="0 0 12 12">
    <g fill="none" fill-rule="nonzero">
        <path fill="#FFF" fill-opacity="0" d="M0 0h12v12H0z"/>
        <path fill="#7F8FA4" d="M10.865 1.865c.276 0 .486.21.486.486s-.21.487-.486.487H10.2l-.746 8.432a.836.836 0 0 1-.81.73H2.74a.823.823 0 0 1-.811-.73l-.746-8.432H.486A.478.478 0 0 1 0 2.35c0-.275.21-.486.486-.486h2.595V.81c0-.454.357-.811.81-.811H7.46c.455 0 .811.357.811.81v1.055h2.595zM4.054.973v.892h3.243V.973H4.054z"/>
    </g>
</svg>
